www/assets/icons/panorama_vertical_select.svg

<svg width="24" height="24" viewBox="0 0 24 24" xmlns="http://www.w3.org/2000/svg" fill='currentColor'><path d="M19.935 21.12C18.835 18.18 18.295 15.09 18.295 12C18.295 8.91 18.845 5.82 19.935 2.88C19.985 2.77 20.005 2.66 20.005 2.57C20.005 2.23 19.765 2 19.365 2H4.62499C4.22499 2 3.995 2.23 3.995 2.57C3.995 2.67 4.015 2.77 4.055 2.88C5.165 5.82 5.70499 8.91 5.70499 12C5.70499 15.09 5.155 18.18 4.065 21.12C4.015 21.23 3.995 21.34 3.995 21.43C3.995 21.76 4.22499 22 4.62499 22H19.375C19.765 22 20.005 21.76 20.005 21.43C20.005 21.33 19.985 21.23 19.935 21.12Z"/></svg>

<svg xmlns="http://www.w3.org/2000/svg" width="24" height="24" viewBox="0 0 24 24" fill='currentColor'><path d="M19.935 21.12c-1.1-2.94-1.64-6.03-1.64-9.12s.55-6.18 1.64-9.12c.05-.11.07-.22.07-.31 0-.34-.24-.57-.64-.57H4.625c-.4 0-.63.23-.63.57 0 .1.02.2.06.31 1.11 2.94 1.65 6.03 1.65 9.12s-.55 6.18-1.64 9.12c-.05.11-.07.22-.07.31 0 .33.23.57.63.57h14.75c.39 0 .63-.24.63-.57 0-.1-.02-.2-.07-.31"/></svg>
